resources/haticons/SVG/book_online.svg

<!-- Generated by IcoMoon.io -->
<svg version="1.1" xmlns="http://www.w3.org/2000/svg" width="24" height="24" viewBox="0 0 24 24">
<title>book_online</title>
<path d="M13.359 20.016l0.563 1.969h-8.906q-0.844 0-1.43-0.586t-0.586-1.383v-14.016q0-0.844 0.586-1.43t1.43-0.586h0.984v-1.969h2.016v1.969h7.969v-1.969h2.016v1.969h0.984q0.844 0 1.43 0.586t0.586 1.43v8.906l-2.016-0.563v-4.359h-13.969v10.031h8.344zM21.703 21.281l-3.234-3.234 2.531-1.031-6.984-2.016 1.969 6.984 1.078-2.484 3.234 3.188zM12 17.016v-5.016h-5.016v5.016h5.016z"></path>
</svg>

<svg xmlns="http://www.w3.org/2000/svg" width="24" height="24"><path d="M13.359 20.016l.563 1.969H5.016q-.844 0-1.43-.586T3 20.016V6q0-.844.586-1.43t1.43-.586H6V2.015h2.016v1.969h7.969V2.015h2.016v1.969h.984q.844 0 1.43.586T21.001 6v8.906l-2.016-.563V9.984H5.016v10.031h8.344zm8.344 1.265l-3.234-3.234L21 17.016 14.016 15l1.969 6.984 1.078-2.484 3.234 3.188zM12 17.016V12H6.984v5.016H12z"/></svg>
